img/program/img-1.svg

<svg width="99" height="101" viewBox="0 0 99 101" fill="none" xmlns="http://www.w3.org/2000/svg">
<path d="M43.7423 75.7461H34.5128C31.1267 75.7461 28.3823 78.4624 28.3823 81.814V88.5703H70.6159V81.814C70.6159 78.4624 67.8715 75.7461 64.4854 75.7461H55.2559H43.7423Z" fill="url(#paint0_linear)"/>
<path d="M96.3655 13.8538C93.1926 8.93404 87.6322 6.22559 80.7105 6.22559H80.5312H18.4693H18.2899C11.3663 6.22559 5.80782 8.93207 2.63697 13.8538C-0.790982 19.1702 -0.878673 26.2204 2.39582 33.2036C8.41466 46.0318 27.3999 50.3085 28.2051 50.4841L30.0526 50.8885H30.0546H68.9459H68.9479L70.7974 50.4861C71.6025 50.3105 90.5898 46.0338 96.6047 33.2056C99.8792 26.2204 99.7915 19.1702 96.3655 13.8538ZM90.9186 30.5899C88.5071 35.7306 82.8709 39.2045 78.5661 41.2126C76.7903 42.0431 75.1003 42.6921 73.6673 43.1833L25.3332 43.1853H25.3312C23.8982 42.6901 22.2062 42.0411 20.4324 41.2126C16.1295 39.2045 10.4914 35.7286 8.07984 30.5899C5.72412 25.5695 5.66632 20.6871 7.9184 17.1936C9.89745 14.1221 13.5825 12.4316 18.288 12.4316H18.4733H80.5252H80.7105C85.416 12.4316 89.099 14.1221 91.0801 17.1936C93.3322 20.6852 93.2744 25.5695 90.9186 30.5899Z" fill="url(#paint1_linear)"/>
<path d="M53.8888 75.7461L53.8788 69.7235C53.8728 65.3916 56.1409 61.3378 59.9136 59.1422C71.9294 52.1531 80.5291 33.4168 80.5291 11.396V0H18.4673V11.396C18.4673 33.4168 27.069 52.1551 39.0848 59.1422C42.8575 61.3378 45.1276 65.3896 45.1196 69.7216L45.1116 75.7461L50.126 80.8848L53.8888 75.7461Z" fill="url(#paint2_linear)"/>
<path d="M47.4035 69.7235L47.3995 75.746H45.1116L45.1196 69.7235C45.1255 65.3916 42.8555 61.3378 39.0848 59.1442C27.069 52.1551 18.4692 33.4168 18.4692 11.396V0H34.6524V11.396C34.6524 33.4168 38.7699 52.1531 44.5177 59.1422C46.3213 61.3378 47.4075 65.3916 47.4035 69.7235Z" fill="url(#paint3_linear)"/>
<path d="M47.8878 75.7461H43.7423H34.5128C31.1267 75.7461 28.3823 78.4624 28.3823 81.814V88.5703H41.7573V81.814C41.7573 78.4624 44.5037 75.7461 47.8878 75.7461Z" fill="url(#paint4_linear)"/>
<path d="M42.1478 85.2603H26.0165C24.0932 85.2603 22.5327 86.8029 22.5327 88.7085V101H76.4671V88.7085C76.4671 86.8048 74.9086 85.2603 72.9834 85.2603H56.8501" fill="#5669A9"/>
<path d="M30.1958 85.2603H26.0165C24.0932 85.2603 22.5327 86.8029 22.5327 88.7085V101H26.712V88.7085C26.712 86.8048 28.2705 85.2603 30.1958 85.2603Z" fill="#3B4547"/>
<defs>
<linearGradient id="paint0_linear" x1="29.5238" y1="82.2269" x2="67.6509" y2="82.8297" gradientUnits="userSpaceOnUse">
<stop stop-color="#E2D0FF"/>
<stop offset="1" stop-color="#8A4CEA"/>
</linearGradient>
<linearGradient id="paint1_linear" x1="109.987" y1="19.5043" x2="94.5067" y2="52.4061" gradientUnits="userSpaceOnUse">
<stop stop-color="#9F27F8"/>
<stop offset="1" stop-color="#5F1397"/>
</linearGradient>
<linearGradient id="paint2_linear" x1="20.1446" y1="40.8759" x2="76.1853" y2="41.0823" gradientUnits="userSpaceOnUse">
<stop stop-color="#E2D0FF"/>
<stop offset="1" stop-color="#8A4CEA"/>
</linearGradient>
<linearGradient id="paint3_linear" x1="50.6151" y1="22.5201" x2="28.6053" y2="30.5816" gradientUnits="userSpaceOnUse">
<stop stop-color="#9F27F8"/>
<stop offset="1" stop-color="#5F1397"/>
</linearGradient>
<linearGradient id="paint4_linear" x1="50.0528" y1="79.5589" x2="44.6711" y2="87.4074" gradientUnits="userSpaceOnUse">
<stop stop-color="#9F27F8"/>
<stop offset="1" stop-color="#5F1397"/>
</linearGradient>
</defs>
</svg>

<svg width="99" height="101" fill="none" xmlns="http://www.w3.org/2000/svg"><path d="M43.742 75.746h-9.23c-3.385 0-6.13 2.716-6.13 6.068v6.756h42.234v-6.756c0-3.352-2.745-6.068-6.13-6.068H43.741z" fill="url(#paint0_linear)"/><path d="M96.365 13.854c-3.172-4.92-8.733-7.628-15.654-7.628H18.288c-6.923 0-12.481 2.706-15.652 7.628C-.792 19.17-.88 26.22 2.395 33.204c6.019 12.828 25.004 17.105 25.81 17.28l1.847.404h38.895l1.85-.402c.805-.175 19.792-4.452 25.807-17.28 3.274-6.986 3.186-14.036-.24-19.352zM90.92 30.59c-2.412 5.14-8.048 8.615-12.353 10.623a49.578 49.578 0 01-4.899 1.97l-48.334.002h-.002a50.95 50.95 0 01-4.899-1.972c-4.302-2.008-9.94-5.484-12.352-10.623-2.356-5.02-2.414-9.903-.162-13.396 1.98-3.072 5.664-4.762 10.37-4.762H80.71c4.706 0 8.389 1.69 10.37 4.762 2.252 3.491 2.194 8.376-.161 13.396z" fill="url(#paint1_linear)"/><path d="M53.889 75.746l-.01-6.022c-.006-4.332 2.262-8.386 6.035-10.582 12.015-6.989 20.615-25.725 20.615-47.746V0H18.467v11.396c0 22.02 8.602 40.76 20.618 47.746 3.773 2.196 6.043 6.248 6.035 10.58l-.008 6.024 5.014 5.139 3.763-5.139z" fill="url(#paint2_linear)"/><path d="M47.404 69.724l-.005 6.022h-2.287l.008-6.022c.006-4.332-2.264-8.386-6.035-10.58-12.016-6.989-20.616-25.727-20.616-47.748V0h16.183v11.396c0 22.02 4.118 40.757 9.866 47.746 1.803 2.196 2.89 6.25 2.886 10.581z" fill="url(#paint3_linear)"/><path d="M47.888 75.746H34.512c-3.385 0-6.13 2.716-6.13 6.068v6.756h13.375v-6.756c0-3.352 2.747-6.068 6.13-6.068z" fill="url(#paint4_linear)"/><path d="M42.148 85.26H26.016c-1.923 0-3.483 1.543-3.483 3.448V101h53.934V88.709c0-1.904-1.558-3.449-3.484-3.449H56.85" fill="#5669A9"/><path d="M30.196 85.26h-4.18c-1.923 0-3.483 1.543-3.483 3.448V101h4.179V88.709c0-1.904 1.558-3.449 3.484-3.449z" fill="#3B4547"/><defs><linearGradient id="paint0_linear" x1="29.524" y1="82.227" x2="67.651" y2="82.83" gradientUnits="userSpaceOnUse"><stop stop-color="#E2D0FF"/><stop offset="1" stop-color="#8A4CEA"/></linearGradient><linearGradient id="paint1_linear" x1="109.987" y1="19.504" x2="94.507" y2="52.406" gradientUnits="userSpaceOnUse"><stop stop-color="#9F27F8"/><stop offset="1" stop-color="#5F1397"/></linearGradient><linearGradient id="paint2_linear" x1="20.145" y1="40.876" x2="76.185" y2="41.082" gradientUnits="userSpaceOnUse"><stop stop-color="#E2D0FF"/><stop offset="1" stop-color="#8A4CEA"/></linearGradient><linearGradient id="paint3_linear" x1="50.615" y1="22.52" x2="28.605" y2="30.582" gradientUnits="userSpaceOnUse"><stop stop-color="#9F27F8"/><stop offset="1" stop-color="#5F1397"/></linearGradient><linearGradient id="paint4_linear" x1="50.053" y1="79.559" x2="44.671" y2="87.407" gradientUnits="userSpaceOnUse"><stop stop-color="#9F27F8"/><stop offset="1" stop-color="#5F1397"/></linearGradient></defs></svg>
